symbols/web/mic_external_on/materialsymbolsrounded/mic_external_on_gradN25_20px.svg

<svg xmlns="http://www.w3.org/2000/svg" height="20" width="20"><path d="M4.188 5.979q-.334-.333-.49-.75-.156-.417-.156-.875 0-1.021.708-1.729.708-.708 1.708-.708 1.021 0 1.729.708.709.708.709 1.729 0 .458-.167.875t-.5.75Zm4.187 12.104q-1.375 0-2.313-.958-.937-.958-.937-2.313h-.396q-.167 0-.291-.124-.126-.126-.146-.271l-.667-6.771q-.042-.354.187-.615.23-.26.605-.26H7.5q.354 0 .594.26.239.261.198.615l-.667 6.771q0 .166-.135.281-.136.114-.282.114h-.437q0 .667.469 1.146.468.48 1.135.48t1.135-.48q.469-.479.469-1.146V5.188q0-1.355.938-2.313.937-.958 2.312-.958 1.354 0 2.302.958t.948 2.313v12.083q0 .312-.25.562-.25.25-.583.25-.313 0-.563-.25-.25-.25-.25-.562V5.188q0-.667-.479-1.146-.479-.48-1.146-.48-.646 0-1.114.48-.469.479-.469 1.146v9.624q0 1.355-.948 2.313-.948.958-2.302.958Zm-2.563-4.854h.292l.458-4.812H5.354Zm.292-4.812h-.75 1.208Z"/></svg>

<svg xmlns="http://www.w3.org/2000/svg" height="20" width="20"><path d="M4.188 5.979Q3.854 5.646 3.698 5.229Q3.542 4.812 3.542 4.354Q3.542 3.333 4.25 2.625Q4.958 1.917 5.958 1.917Q6.979 1.917 7.687 2.625Q8.396 3.333 8.396 4.354Q8.396 4.812 8.229 5.229Q8.062 5.646 7.729 5.979ZM8.375 18.083Q7 18.083 6.062 17.125Q5.125 16.167 5.125 14.812H4.729Q4.562 14.812 4.438 14.688Q4.312 14.562 4.292 14.417L3.625 7.646Q3.583 7.292 3.812 7.031Q4.042 6.771 4.417 6.771H7.5Q7.854 6.771 8.094 7.031Q8.333 7.292 8.292 7.646L7.625 14.417Q7.625 14.583 7.49 14.698Q7.354 14.812 7.208 14.812H6.771Q6.771 15.479 7.24 15.958Q7.708 16.438 8.375 16.438Q9.042 16.438 9.51 15.958Q9.979 15.479 9.979 14.812V5.188Q9.979 3.833 10.917 2.875Q11.854 1.917 13.229 1.917Q14.583 1.917 15.531 2.875Q16.479 3.833 16.479 5.188V17.271Q16.479 17.583 16.229 17.833Q15.979 18.083 15.646 18.083Q15.333 18.083 15.083 17.833Q14.833 17.583 14.833 17.271V5.188Q14.833 4.521 14.354 4.042Q13.875 3.562 13.208 3.562Q12.562 3.562 12.094 4.042Q11.625 4.521 11.625 5.188V14.812Q11.625 16.167 10.677 17.125Q9.729 18.083 8.375 18.083ZM5.812 13.229H6.104L6.562 8.417H5.354ZM6.104 8.417H5.812H5.354H6.562Z"/></svg>
